packages/hms_room_kit/lib/src/assets/icons/recording_error.svg

<svg width="24" height="24" viewBox="0 0 24 24" fill="none" xmlns="http://www.w3.org/2000/svg">
<g id="Record/Record Off">
<g id="Vector">
<path d="M18.9024 17.0739C19.9567 15.6486 20.583 13.8933 20.583 12.0068C20.583 7.30859 16.6899 3.42383 11.9834 3.42383C10.1003 3.42383 8.34917 4.04793 6.92679 5.09836L8.14117 6.31274C9.23449 5.5729 10.5557 5.14209 11.9834 5.14209C15.7935 5.14209 18.8565 8.19678 18.8648 12.0068C18.8679 13.4393 18.4357 14.7661 17.6927 15.8642L18.9024 17.0739Z" fill="#EFF0FA"/>
<path d="M15.9377 17.6448L17.1439 18.851C15.7036 19.9402 13.9163 20.5898 11.9917 20.5898C7.29347 20.5898 3.4087 16.7051 3.4087 12.0068C3.4087 10.0832 4.05858 8.29586 5.14865 6.85575L6.36206 8.06917C5.58794 9.18168 5.13526 10.5381 5.13526 12.0068C5.13526 15.8169 8.18165 18.8799 11.9917 18.8799C13.4619 18.8799 14.822 18.4238 15.9377 17.6448Z" fill="#EFF0FA"/>
<path d="M15.0281 13.1997C15.1739 12.8284 15.2539 12.4233 15.2539 11.9985C15.2539 10.2056 13.8013 8.74463 12 8.74463C11.5755 8.74463 11.1707 8.82502 10.7996 8.97122L15.0281 13.1997Z" fill="#EFF0FA"/>
<path d="M9.00309 10.7102L13.2894 14.9965C12.8943 15.1666 12.4585 15.2607 12 15.2607C10.1904 15.2607 8.7378 13.8081 8.7378 11.9985C8.7378 11.5412 8.83229 11.1056 9.00309 10.7102Z" fill="#EFF0FA"/>
<path d="M2.53034 3.53033C2.23745 3.23744 2.23745 2.76256 2.53034 2.46967C2.82323 2.17678 3.29811 2.17678 3.591 2.46967L21.7599 20.6385C22.0528 20.9314 22.0528 21.4063 21.7599 21.6992C21.467 21.9921 20.9921 21.9921 20.6992 21.6992L2.53034 3.53033Z" fill="#EFF0FA"/>
</g>
</g>
</svg>

<svg xmlns="http://www.w3.org/2000/svg" width="24" height="24" fill="none" viewBox="0 0 24 24"><g fill="#EFF0FA"><path d="M18.902 17.074a8.504 8.504 0 0 0 1.681-5.067c0-4.698-3.893-8.583-8.6-8.583a8.494 8.494 0 0 0-5.056 1.674L8.14 6.313a6.827 6.827 0 0 1 3.842-1.17 6.86 6.86 0 0 1 6.882 6.864 6.83 6.83 0 0 1-1.172 3.857l1.21 1.21Zm-2.964.571 1.206 1.206a8.525 8.525 0 0 1-5.152 1.739c-4.699 0-8.583-3.885-8.583-8.583 0-1.924.65-3.711 1.74-5.151l1.213 1.213a6.866 6.866 0 0 0-1.227 3.938 6.84 6.84 0 0 0 6.857 6.873c1.47 0 2.83-.456 3.946-1.235Z"/><path d="M15.028 13.2a3.28 3.28 0 0 0 .226-1.201A3.254 3.254 0 0 0 12 8.745c-.425 0-.83.08-1.2.226l4.228 4.229Zm-6.025-2.49 4.286 4.286a3.25 3.25 0 0 1-1.289.265 3.252 3.252 0 0 1-3.262-3.262c0-.458.094-.893.265-1.289ZM2.53 3.53a.75.75 0 0 1 1.061-1.06L21.76 20.638A.75.75 0 0 1 20.7 21.7L2.53 3.53Z"/></g></svg>
